css/images/lock-icon.svg

<?xml version="1.0" standalone="no"?>
<!DOCTYPE svg PUBLIC "-//W3C//DTD SVG 1.0//EN" "http://www.w3.org/TR/2001/REC-SVG-20010904/DTD/svg10.dtd">
<svg xmlns="http://www.w3.org/2000/svg" xmlns:xlink="http://www.w3.org/1999/xlink" id="body_1" width="361" height="361">

<g transform="matrix(0.99967325 0 0 0.99967325 0 0)">
    <path d="M274.76 141.3L274.76 94.2C 274.76 42.17 232.58002 0 180.56001 0C 128.53001 0 86.360016 42.17 86.360016 94.2L86.360016 94.2L86.360016 141.29999C 69.01002 141.29999 54.960014 155.35999 54.960014 172.69998L54.960014 172.69998L54.960014 329.71997C 54.960014 347.05997 69.01002 361.11996 86.360016 361.11996L86.360016 361.11996L274.76 361.11996C 292.11002 361.11996 306.16 347.05997 306.16 329.71997L306.16 329.71997L306.16 172.7C 306.16 155.36 292.11002 141.3 274.76 141.3zM117.76001 94.200005C 117.76001 59.500004 145.88 31.400005 180.56001 31.400005C 215.24002 31.400005 243.36002 59.500008 243.36002 94.200005L243.36002 94.200005L243.36002 141.3L117.76002 141.3L117.76002 94.2zM274.76 329.7L86.36 329.7L86.36 172.70001L274.76 172.70001L274.76 329.7zM164.86002 262.56L164.86002 282.61C 164.86002 291.31 171.89001 298.31 180.56001 298.31C 189.22002 298.31 196.26001 291.31 196.26001 282.61L196.26001 282.61L196.26001 262.6C 205.6 257.16 211.96 247.14 211.96 235.55C 211.96 218.21 197.90001 204.15001 180.56001 204.15001C 163.22002 204.15001 149.16002 218.21 149.16002 235.55C 149.16002 247.15001 155.52002 257.17 164.86002 262.61002z" stroke="none" fill="#9D9D9D" fill-rule="nonzero" />
</g>
</svg>

<svg xmlns="http://www.w3.org/2000/svg" width="361.118" height="361.118"><path fill="#9d9d9d" d="M274.76 141.3V94.2c0-52.03-42.18-94.2-94.2-94.2-52.03 0-94.2 42.17-94.2 94.2v47.1c-17.35 0-31.4 14.06-31.4 31.4v157.02c0 17.34 14.05 31.4 31.4 31.4h188.4c17.35 0 31.4-14.06 31.4-31.4V172.7c0-17.34-14.05-31.4-31.4-31.4zm-157-47.1c0-34.7 28.12-62.8 62.8-62.8 34.68 0 62.8 28.1 62.8 62.8v47.1h-125.6V94.2zm157 235.5H86.36v-157h188.4v157zm-109.9-67.14v20.05c0 8.7 7.03 15.7 15.7 15.7 8.66 0 15.7-7 15.7-15.7V262.6c9.34-5.44 15.7-15.46 15.7-27.05 0-17.34-14.06-31.4-31.4-31.4-17.34 0-31.4 14.06-31.4 31.4 0 11.6 6.36 21.62 15.7 27.06z"/></svg>
